svg/emoji_u23ee.svg

<svg width="128" height="128" viewBox="0 0 128 128" fill="none" xmlns="http://www.w3.org/2000/svg">
<path d="M116.46 3.95996H12.46C8.03996 3.95996 4.45996 7.53996 4.45996 11.96V115.96C4.45996 120.38 8.03996 123.96 12.46 123.96H116.46C120.88 123.96 124.46 120.38 124.46 115.96V11.96C124.46 7.53996 120.88 3.95996 116.46 3.95996Z" fill="#427687" style="fill:#427687;fill:color(display-p3 0.2588 0.4627 0.5294);fill-opacity:1;"/>
<path d="M110.16 3.95996H11.96C7.82998 3.98996 4.48998 7.32996 4.45998 11.46V109.36C4.44998 113.5 7.79998 116.85 11.94 116.86C11.95 116.86 11.95 116.86 11.96 116.86H110.06C114.2 116.87 117.55 113.52 117.56 109.38C117.56 109.37 117.56 109.37 117.56 109.36V11.46C117.65 7.40996 114.43 4.04996 110.38 3.95996C110.31 3.95996 110.23 3.95996 110.16 3.95996Z" fill="#8CAFBF" style="fill:#8CAFBF;fill:color(display-p3 0.5490 0.6863 0.7490);fill-opacity:1;"/>
<path d="M108.46 63.9599V38.2599C108.46 36.4599 106.76 35.3599 105.46 36.2599L70.46 60.6599V38.2599C70.59 37.1299 69.77 36.1099 68.64 35.9799C68.19 35.9299 67.74 36.0299 67.36 36.2599L30.46 61.3599V37.8599C30.46 36.8099 29.61 35.9599 28.56 35.9599H18.36C17.31 35.9599 16.46 36.8099 16.46 37.8599V90.1599C16.46 91.2099 17.31 92.0599 18.36 92.0599H28.66C29.71 92.0599 30.56 91.2099 30.56 90.1599V66.5599L67.46 91.5599C68.44 92.1399 69.7 91.8199 70.28 90.8399C70.51 90.4499 70.61 89.9999 70.56 89.5599V67.2599L105.56 91.6599C106.96 92.5599 108.56 91.4599 108.56 89.6599L108.46 63.9599Z" fill="#FAFAFA" style="fill:#FAFAFA;fill:color(display-p3 0.9804 0.9804 0.9804);fill-opacity:1;"/>
<path opacity="0.75" d="M40.1601 12.8598C40.1601 10.5598 38.5601 9.85984 29.3601 10.1598C21.6601 10.4598 17.8601 11.3598 15.5601 14.1598C13.2601 16.9598 12.6601 20.6598 12.5601 27.4598C12.5601 32.2598 12.5601 34.7598 15.0601 34.7598C18.4601 34.7598 18.4601 28.8598 21.2601 24.4598C26.6601 15.7598 40.1601 15.8598 40.1601 12.8598Z" fill="#A0C8D6" style="fill:#A0C8D6;fill:color(display-p3 0.6275 0.7843 0.8392);fill-opacity:1;"/>
</svg>

<?xml version="1.0" encoding="utf-8"?>
<!-- Generator: Adobe Illustrator 25.2.3, SVG Export Plug-In . SVG Version: 6.00 Build 0)  -->
<svg version="1.1" id="Layer_1" xmlns="http://www.w3.org/2000/svg" xmlns:xlink="http://www.w3.org/1999/xlink" x="0px" y="0px"
	 viewBox="0 0 128 128" style="enable-background:new 0 0 128 128;" xml:space="preserve">
<g>
	<path style="fill:#F77E00;" d="M116.46,3.96h-104c-4.42,0-8,3.58-8,8v104c0,4.42,3.58,8,8,8h104c4.42,0,8-3.58,8-8v-104
		C124.46,7.54,120.88,3.96,116.46,3.96z"/>
	<path style="fill:#FF9800;" d="M110.16,3.96h-98.2c-4.13,0.03-7.47,3.37-7.5,7.5v97.9c-0.01,4.14,3.34,7.49,7.48,7.5
		c0.01,0,0.01,0,0.02,0h98.1c4.14,0.01,7.49-3.34,7.5-7.48c0-0.01,0-0.01,0-0.02v-97.9c0.09-4.05-3.13-7.41-7.18-7.5
		C110.31,3.96,110.23,3.96,110.16,3.96z"/>
	<path style="fill:#FAFAFA;" d="M108.46,63.96v-25.7c0-1.8-1.7-2.9-3-2l-35,24.4v-22.4c0.13-1.13-0.69-2.15-1.82-2.28
		c-0.45-0.05-0.9,0.05-1.28,0.28l-36.9,25.1v-23.5c0-1.05-0.85-1.9-1.9-1.9h0h-10.2c-1.05,0-1.9,0.85-1.9,1.9l0,0v52.3
		c0,1.05,0.85,1.9,1.9,1.9h0h10.3c1.05,0,1.9-0.85,1.9-1.9l0,0v-23.6l36.9,25c0.98,0.58,2.24,0.26,2.82-0.72
		c0.23-0.39,0.33-0.84,0.28-1.28v-22.3l35,24.4c1.4,0.9,3-0.2,3-2L108.46,63.96z"/>
	<path style="opacity:0.75;fill:#FFBD52;enable-background:new    ;" d="M40.16,12.86c0-2.3-1.6-3-10.8-2.7
		c-7.7,0.3-11.5,1.2-13.8,4s-2.9,6.5-3,13.3c0,4.8,0,7.3,2.5,7.3c3.4,0,3.4-5.9,6.2-10.3C26.66,15.76,40.16,15.86,40.16,12.86z"/>
</g>
</svg>
